build/images/g8.svg

<svg width="138" height="138" viewBox="0 0 138 138" fill="none" xmlns="http://www.w3.org/2000/svg">
<circle cx="69" cy="69" r="69" fill="#76BD5E"/>
<path d="M98.852 82.6292L103.917 77.5646L98.852 72.5L86.2083 85.1438L55.8562 54.7917L68.4999 42.148L63.4353 37.0834L58.3708 42.148L53.3062 37.0834L45.727 44.6625L40.6624 39.598L35.5978 44.6625L40.6624 49.7271L33.0833 57.3063L38.1478 62.3709L33.0833 67.4355L38.1478 72.5L50.7916 59.8563L81.1437 90.2084L68.4999 102.852L73.5645 107.917L78.6291 102.852L83.6937 107.917L91.2728 100.338L96.3374 105.402L101.402 100.338L96.3374 95.273L103.917 87.6938L98.852 82.6292Z" fill="white"/>
</svg>

<svg width="138" height="138" fill="none" xmlns="http://www.w3.org/2000/svg"><circle cx="69" cy="69" r="69" fill="#76BD5E"/><path d="M98.852 82.63l5.065-5.065-5.065-5.065-12.644 12.644-30.352-30.352L68.5 42.148l-5.065-5.065-5.064 5.065-5.065-5.065-7.579 7.58-5.065-5.065-5.064 5.065 5.064 5.064-7.579 7.58 5.065 5.064-5.065 5.065 5.065 5.064 12.644-12.644 30.352 30.352L68.5 102.852l5.064 5.065 5.065-5.065 5.065 5.065 7.579-7.579 5.064 5.064 5.065-5.064-5.065-5.065 7.58-7.58-5.065-5.064z" fill="#fff"/></svg>
